X:1
T:Title
%%score { ( 1 3 ) | ( 2 4 ) }
L:1/8
Q:1/4=90
M:6/8
K:G
V:1 treble nm="Grand Piano"
V:3 treble 
V:2 bass 
V:4 bass 
V:1
 B>cB BAG | [EG][CE][CG] [B,D]3 | [B,G]>[B,G][B,G] [DG][CF][B,G] | [DA]6[K:bass] | B>cB BAG | %5
w: J.~Howard~Entwisle * * * * *|||||
 [EG][CE][CG] [B,D]3 | G>GG A>GF | [B,G]6 | A>AB cBA | BGB d3 | d>cB BAG | AAB A3 | B>Bc dBG | %13
w: ||||||||
 [EA]>[EG]E G3 | D>DD B>GA | [B,DG]6 | [FA]>[FA][GB] [Ac][GB][FA] | [GB]6 | [CGc]>[Gd][Ge] dBG | %19
w: ||||||
 [FA]6 | B>Bc dBG | [EA][EG]E G3 | D>DD DFA | G6 |] %24
w: |||||
V:2
 [G,D]>[G,E][G,D] [G,D][G,CD][G,B,D] | [C,C][C,G,][C,E,] [G,,G,]3 | %2
 [G,,D,]>[G,,D,][G,,D,] [B,,D,][A,,D,][G,,G,] | [D,F,]2 D, D,3 | %4
 [G,D]>[G,E][G,D] [G,D][G,CD][G,B,D] | [C,C][C,G,][C,E,] [G,,G,]3 | %6
 [D,B,]>[D,B,][D,G,B,] [D,F,C]>[D,G,C][D,A,C] | [G,,G,]6 | %8
 [D,F,D]>[D,F,D][D,G,D] [D,A,D][D,G,D][D,F,D] | [G,D][G,B,D][G,DG] [G,B,G]3 | %10
 [G,B,D]>[K:bass][G,A,D][G,D] [E,G,^C][E,G,C][E,G,C] | [D,F,D][D,F,D][E,G,D] [D,F,D]3 | %12
 [G,D]>[G,D][G,A,D] [G,B,G][G,DG][G,B,=F] | [C,C]>[C,C][C,G,C] [C,E,C]3 | %14
 [D,G,B,]>[D,G,B,][D,G,B,] [D,G,D]>[D,B,D][D,CD] | G,,6 | [D,D]>[D,D][D,D] [D,D][D,D][D,D] | %17
 [G,D]2 G, G,2 =F, | E,>[D,B,][C,C][K:treble] [G,B,G][G,DG][K:bass][G,B,D] | [D,D]2 D, D,3 | %20
 [G,DG]>[G,DG][G,A,G] [G,B,G][G,DG][G,B,=F] | [C,C][C,C][C,G,C] [C,E,C]3 | %22
 [D,G,B,]>[D,G,B,][D,G,B,] [D,F,C][D,A,C][D,F,C] | z2 E, D,3 |] %24
V:3
 x6 | x6 | x6 | z2[K:bass] F, F,3 | x6 | x6 | x6 | x6 | x6 | x6 | x6 | x6 | x6 | x6 | x6 | x6 | %16
 x6 | z2 D D3 | x6 | z2 D D3 | x6 | x6 | x6 | [G,B,]2 C B,3 |] %24
V:4
 x6 | x6 | x6 | x6 | x6 | x6 | x6 | x6 | x6 | x6 | x3/2[K:bass] x9/2 | x6 | x6 | x6 | x6 | x6 | %16
 x6 | x6 | x3[K:treble] x2[K:bass] x | x6 | x6 | x6 | x6 | G,,6 |] %24

